X:1
T:Gan Ainm
M:4/4
L:1/8
K:E Minor
ED |&quot;Em&quot;B,<EE>F G>E`G<B|&quot;D&quot;A>G`F>E D>EF<D|&quot;Em&quot;B,<EE>F   G>E`G<B|   e>dB<d &quot;G&quot; d<egf |
    &quot;Em&quot;e>f`e>d B>c`d<B|&quot;D&quot;A>G`F>E D>EF<D|&quot;Em&quot;B,<EE>F   G>E`G<B|&quot;D&quot;A>FD<F &quot;Em&quot;E2   :|
F<A|&quot;Em&quot;B<E`E>D B,<EE>D|   B,<ED<F G>EG<B|&quot;D&quot; A>F`E>D   B,<DD>E|   F>DF>G     A>FG<A|
    &quot;Em&quot;B<E`E>D B,<EE>D|   B,<ED<F G>EG<A|    B<e d/e/f e>d`BG |&quot;D&quot;A>FD<F &quot;Em&quot;E2   :|
